rospo-icon-theme-classic-common/64x64/apps/com.github.bharatkalluri.easypass.svg

<svg height="64" viewBox="0 0 64 64" width="64" xmlns="http://www.w3.org/2000/svg"><path d="m4.043001 31.848123a16.000286 15.999886 0 0 0 -.0430011 1.151992 16.000286 15.999886 0 0 0 16.0002861 15.999885 16.000286 15.999886 0 0 0 14.820664-9.999928h9.180164v-1.999986h-9.179764a16.000286 15.999886 0 0 1 -14.820264 9.999929 16.000286 15.999886 0 0 1 -15.957285-15.151892zm49.956892 5.151963v1.999986h6.000107v-1.999986zm-10.000179 5.999957v1.999986h10.000179v-1.999986z" opacity=".2"/><path d="m19.999886 16.000244a15.999886 15.999886 0 0 0 -15.9998858 15.999885 15.999886 15.999886 0 0 0 15.9998858 15.999886 15.999886 15.999886 0 0 0 14.820294-9.999929h9.179934v5.999957h9.999929v-5.999957h5.999957v-11.999914h-25.17582a15.999886 15.999886 0 0 0 -14.824094-9.999928z" fill="#0d86cb"/><circle cx="20" cy="33" opacity=".2" r="6"/><circle cx="20" cy="32" fill="#f9f9f9" r="6"/><path d="m20 16a15.999886 15.999886 0 0 0 -15.9570312 14.847656 15.999886 15.999886 0 0 1 -.0214844-.429687 15.999886 15.999886 0 0 0 -.0214844.582031 15.999886 15.999886 0 0 0  .0429688.847656 15.999886 15.999886 0 0 1 15.9570312-14.847656 15.999886 15.999886 0 0 1 14.824219 10h25.175781v-1h-25.175781a15.999886 15.999886 0 0 0 -14.824219-10z" fill="#fff" opacity=".2"/></svg>

<svg xmlns="http://www.w3.org/2000/svg" width="64" height="64" version="1.1" viewBox="0 0 64 64">
 <path style="opacity:0.2" d="M 4.043001,31.848123 A 16.000286,15.999886 0 0 0 3.9999999,33.000115 16.000286,15.999886 0 0 0 20.000286,49 16.000286,15.999886 0 0 0 34.82095,39.000072 l 9.180164,0 0,-1.999986 -9.179764,0 A 16.000286,15.999886 0 0 1 20.001086,47.000015 16.000286,15.999886 0 0 1 4.043801,31.848123 Z m 49.956892,5.151963 0,1.999986 6.000107,0 0,-1.999986 -6.000107,0 z m -10.000179,5.999957 0,1.999986 10.000179,0 0,-1.999986 -10.000179,0 z"/>
 <path style="fill:#0d86cb" d="M 19.999886,16.000244 A 15.999886,15.999886 0 0 0 4.0000002,32.000129 15.999886,15.999886 0 0 0 19.999886,48.000015 15.999886,15.999886 0 0 0 34.82018,38.000086 l 9.179934,0 0,5.999957 9.999929,0 0,-5.999957 5.999957,0 0,-11.999914 -25.17582,0 A 15.999886,15.999886 0 0 0 20.000086,16.000244 Z"/>
 <circle style="opacity:0.2" cx="20" cy="33" r="6"/>
 <circle style="fill:#f9f9f9" cx="20" cy="32" r="6"/>
 <path style="opacity:0.2;fill:#ffffff" d="M 20 16 A 15.999886 15.999886 0 0 0 4.0429688 30.847656 A 15.999886 15.999886 0 0 1 4.0214844 30.417969 A 15.999886 15.999886 0 0 0 4 31 A 15.999886 15.999886 0 0 0 4.0429688 31.847656 A 15.999886 15.999886 0 0 1 20 17 A 15.999886 15.999886 0 0 1 34.824219 27 L 60 27 L 60 26 L 34.824219 26 A 15.999886 15.999886 0 0 0 20 16 z"/>
</svg>
